X: 1
T: The Old Morpeth Rant
R: reel
M: 4/4
L: 1/8
K:Gmaj
|:DF|G2DB, G,B,DB,|G,CEC G,B,DB,|B2AB cBAG|F2A2 AcBA|
G2DB, G,B,DB,|G,CEC G,B,DB,|B2AB cBAG|D2G2 G2:|
|:(3def|gfed B2AB|cBAG F2D2|E2CE cBAG|F2D2 D2GF|
ECEG cBAG|FDFA dcBA|Ggfg ecAF|A2G2 G2:|